X:167
T:Bantry Bay
S:Seán Gavin
R:hornpipe
M:4/4
L:1/8
K:G
dc | BGAG EGDE | G2GF GBAG | EAAB cBAG | A2AB A2AB |
c2ec B2dB | ABAG EGDE | ABAG EGDE | G2GF G2 :|
Bc |: dBGB dBGA | B2 e2 e3f | gfed BGBd | g2fa g2fe |
gagf efed | BGAG EGD2 | GBAB EGDE | G2GF G2 :|

%%newpage
%%scale .7
%%staffsep 40

